hook/res/reviewed.svg

<?xml version="1.0" encoding="UTF-8"?>
<svg xmlns="http://www.w3.org/2000/svg" xmlns:xlink="http://www.w3.org/1999/xlink" width="px" height="32px" viewBox="0 0 32 32" version="1.1">
<g id="surface1">
<path style=" stroke:none;fill-rule:nonzero;fill:rgb(0%,0%,0%);fill-opacity:1;" d="M 2.273438 22.554688 L 0.835938 27.4375 L 0.0625 30.074219 C -0.09375 30.605469 0.0507812 31.175781 0.4375 31.5625 C 0.824219 31.949219 1.394531 32.09375 1.917969 31.945312 L 4.5625 31.164062 L 9.445312 29.726562 C 10.09375 29.539062 10.699219 29.226562 11.230469 28.820312 L 11.25 28.832031 L 11.28125 28.78125 C 11.367188 28.710938 11.449219 28.644531 11.53125 28.574219 C 11.617188 28.5 11.699219 28.417969 11.78125 28.335938 L 30.792969 9.332031 C 32.136719 7.988281 32.351562 5.886719 31.304688 4.300781 C 31.164062 4.082031 30.988281 3.867188 30.792969 3.675781 L 28.332031 1.207031 C 26.769531 -0.355469 24.238281 -0.355469 22.675781 1.207031 L 3.664062 20.21875 C 3.507812 20.375 3.355469 20.542969 3.21875 20.71875 L 3.167969 20.75 L 3.179688 20.769531 C 2.773438 21.304688 2.464844 21.910156 2.273438 22.554688 M 23.9375 11.9375 L 12.335938 23.539062 L 9.238281 22.761719 L 8.460938 19.664062 L 20.0625 8.0625 Z M 6.0625 22.429688 L 6.542969 24.367188 C 6.679688 24.90625 7.097656 25.328125 7.636719 25.460938 L 9.574219 25.945312 L 9.113281 26.644531 C 8.953125 26.734375 8.78125 26.804688 8.605469 26.855469 L 7.144531 27.289062 L 3.710938 28.289062 L 4.71875 24.863281 L 5.148438 23.398438 C 5.199219 23.226562 5.273438 23.050781 5.363281 22.894531 Z M 19.707031 13.667969 C 20.09375 13.28125 20.09375 12.644531 19.707031 12.257812 C 19.320312 11.867188 18.679688 11.867188 18.292969 12.257812 L 12.292969 18.257812 C 11.90625 18.644531 11.90625 19.28125 12.292969 19.667969 C 12.679688 20.054688 13.320312 20.054688 13.707031 19.667969 Z M 19.707031 13.667969 "/>
</g>
</svg>

<svg xmlns="http://www.w3.org/2000/svg" viewBox="0 0 32 32"><path d="M2.27 22.55.84 27.44l-.78 2.63a1.5 1.5 0 0 0 1.86 1.88l2.64-.79 4.89-1.43q.97-.3 1.78-.91l.02.01.03-.05.25-.2.25-.24 19.01-19a4 4 0 0 0 0-5.66L28.33 1.2a4 4 0 0 0-5.65 0l-19.02 19-.44.5-.05.04.01.02q-.62.8-.9 1.78m21.66-10.61-11.6 11.6-3.1-.78-.78-3.1 11.6-11.6ZM6.06 22.43l.48 1.94c.14.54.56.96 1.1 1.1l1.93.48-.46.7a2 2 0 0 1-.5.2l-1.47.44-3.43 1 1-3.43.44-1.46q.08-.27.21-.5Zm13.65-8.76a1 1 0 0 0-1.41-1.41l-6 6a1 1 0 0 0 0 1.4 1 1 0 0 0 1.4 0Zm0 0"/></svg>
